src/actions/16/tools-media-optical-burn.svg

<svg xmlns="http://www.w3.org/2000/svg" viewBox="0 0 16 16">
    <path d="M8 2a6 6 0 0 0-6 6 6 6 0 0 0 6 6 6 6 0 0 0 1-.09v-1.015A5 5 0 0 1 8 13a5 5 0 0 1-5-5 5 5 0 0 1 5-5 5 5 0 0 1 5 5h1a6 6 0 0 0-6-6m0 2a4 4 0 0 0-4 4h2a2 2 0 0 1 2-2zm0 3a1 1 0 0 0-1 1 1 1 0 0 0 1 1 1 1 0 0 0 1-1 1 1 0 0 0-1-1m2.404 1A2.007 2.007 0 0 1 12 9.973c0 .586-.249 1.107-.643 1.474a1.504 1.504 0 0 1-.357-.97c0-.082.01-.162.03-.241a2 2 0 0 0-1.03 1.75 2 2 0 1 0 4 0A3.995 3.995 0 0 0 10.404 8" style="fill:currentColor;fill-opacity:1;stroke:none;color:#050505;opacity:.7"/>
</svg>

<svg xmlns="http://www.w3.org/2000/svg" viewBox="0 0 16 16">
  <defs id="defs3051">
    <style type="text/css" id="current-color-scheme">
      .ColorScheme-Text {
        color:#363636;
      }
      </style>
  </defs>
 <path style="fill:currentColor;fill-opacity:1;stroke:none" 
     d="M8 2A6 6.00001 0 0 0 2 8 6 6.00001 0 0 0 8 14 6 6.00001 0 0 0 9 13.910156V12.895A5 5 0 0 1 8 13 5 5 0 0 1 3 8 5 5 0 0 1 8 3 5 5 0 0 1 13 8H14A6 6.00001 0 0 0 8 2M8 4C5.791 4 4 5.791 4 8H6C6 6.895 6.895 6 8 6zM8 7A1 1 0 0 0 7 8 1 1 0 0 0 8 9 1 1 0 0 0 9 8 1 1 0 0 0 8 7M10.404 8C11.317 8.188 12 8.997 12 9.973 12 10.559 11.751 11.08 11.357 11.447 11.137 11.184 11 10.849 11 10.477 11 10.395 11.01 10.315 11.03 10.236 10.416 10.58 10 11.23 10 11.986 10 13.1 10.892 13.996 12 13.996 13.11 13.996 14 13.1 14 11.986 14 9.894 12.424 8.206 10.404 8"
     class="ColorScheme-Text"
     />
</svg>
